build/img/svg/icon-water-dispersion.svg

<svg width="16" height="16" viewBox="0 0 16 16" fill="none" xmlns="http://www.w3.org/2000/svg">
<path d="M0.608566 2.88386C0.678491 2.74189 0.724504 2.57902 0.825949 2.4642C0.932828 2.34131 1.08536 2.25474 1.22847 2.17074C1.29332 2.13405 1.331 2.11094 1.33245 2.024C1.34223 1.50347 1.60019 1.25146 2.11611 1.25146H12.1306C12.1737 1.24986 12.2169 1.25121 12.2599 1.25549C12.3845 1.27383 12.4642 1.3428 12.469 1.47559C12.4733 1.59481 12.3787 1.68542 12.2418 1.68835C12.0063 1.69312 11.7708 1.69019 11.5349 1.69055H11.3958V2.94732C11.4469 2.94952 11.4936 2.95355 11.5407 2.95355C12.3248 2.95355 13.1088 2.95355 13.8928 2.95355C14.1649 2.95355 14.2352 2.88202 14.2355 2.6091C14.2355 2.40441 14.2355 2.19972 14.2355 1.99502C14.2337 1.78336 14.1479 1.69422 13.9363 1.69129C13.6863 1.68799 13.4359 1.69129 13.186 1.69129C13.0139 1.69129 12.9153 1.61058 12.9131 1.47779C12.911 1.345 13.0124 1.25769 13.1802 1.25439C13.4446 1.25072 13.7095 1.24669 13.9736 1.25439C14.4004 1.26796 14.6663 1.54969 14.667 1.98512C14.667 2.08306 14.6848 2.13625 14.7884 2.17697C15.1598 2.3237 15.379 2.6124 15.3819 3.01298C15.3895 4.02103 15.413 5.03055 15.3529 6.0375C15.2804 7.23044 14.7997 8.27517 14.0178 9.16988C13.9754 9.21447 13.9421 9.26719 13.92 9.32495C13.8979 9.38271 13.8875 9.44435 13.8892 9.50626C13.8943 10.8122 13.8892 12.1181 13.8928 13.4237C13.8928 13.9655 13.6754 14.3825 13.1888 14.614C13.0006 14.6991 12.7968 14.743 12.5907 14.7428C9.53187 14.7506 6.47282 14.7521 3.41352 14.7472C2.6295 14.7472 2.11177 14.2182 2.10923 13.4266C2.10923 13.2171 2.10923 13.0077 2.10923 12.7982C2.10923 12.6379 2.19546 12.5392 2.32299 12.5392C2.45052 12.5392 2.53711 12.6375 2.54037 12.7978C2.54436 13.0179 2.54037 13.238 2.54037 13.4559C2.54581 13.9581 2.85956 14.2846 3.35628 14.3073C3.38961 14.3092 3.42331 14.3073 3.457 14.3073H12.5624C13.0287 14.3073 13.3374 14.0872 13.4359 13.6804C13.4516 13.6092 13.4588 13.5363 13.4573 13.4633C13.4588 12.2598 13.4588 11.0562 13.4573 9.85255C13.4573 9.82027 13.4533 9.78835 13.4493 9.73003C12.7512 10.3158 11.9201 10.7166 11.031 10.8966C11.031 10.974 11.031 11.0462 11.031 11.1189C11.0234 11.4523 10.8136 11.6878 10.4875 11.7296C10.4445 11.7346 10.4011 11.7368 10.3578 11.7362C8.78492 11.7362 7.21204 11.7362 5.63916 11.7362C5.287 11.7362 5.03483 11.5528 4.97904 11.248C4.95911 11.1379 4.96636 11.0253 4.9602 10.8969C4.07247 10.7154 3.24334 10.313 2.54762 9.72599C2.54436 9.79936 2.54037 9.84851 2.54037 9.89804C2.54037 10.5165 2.54037 11.1352 2.54037 11.7542C2.54188 11.8124 2.53678 11.8707 2.52515 11.9277C2.51711 11.9767 2.49088 12.0208 2.45181 12.0508C2.41275 12.0809 2.36381 12.0947 2.31502 12.0895C2.20017 12.0844 2.12916 12.0161 2.11249 11.8991C2.10754 11.8504 2.10609 11.8013 2.10814 11.7524C2.10814 10.982 2.11032 10.2117 2.10452 9.44133C2.1028 9.36098 2.07462 9.28351 2.02445 9.22123C1.20564 8.29828 0.737184 7.21833 0.628493 5.97991C0.623264 5.94288 0.616129 5.90614 0.607117 5.86986L0.608566 2.88386ZM11.3748 3.40402C11.3748 3.69015 11.3882 3.96748 11.3726 4.24297C11.3306 4.9814 10.5995 5.51183 9.89659 5.31485C9.735 5.26936 9.58429 5.18572 9.41871 5.11566C9.41871 5.17839 9.41871 5.23598 9.41871 5.29357C9.41618 5.89774 9.4256 6.50411 9.40676 7.10608C9.39263 7.56976 9.04011 7.99675 8.59556 8.14055C8.13362 8.28985 7.62458 8.14348 7.32387 7.78656C7.10939 7.53234 7.02497 7.23631 7.02316 6.91093C7.02062 6.41864 7.02896 5.92635 7.01627 5.4348C7.00577 5.03569 6.68694 4.73268 6.28515 4.71178C6.09806 4.70462 5.91505 4.76829 5.77183 4.89038C5.62861 5.01246 5.53545 5.1842 5.51054 5.37207C5.49098 5.52137 5.49569 5.67361 5.48264 5.82364C5.41018 6.64278 4.48667 7.15414 3.76786 6.773C3.3023 6.52576 3.09832 6.12298 3.09687 5.60354C3.09506 4.92637 3.09687 4.24883 3.09687 3.57166V3.40806H2.54472C2.54218 3.44474 2.53928 3.46895 2.53928 3.49316C2.53928 5.34468 2.54025 7.1962 2.54218 9.04772C2.54654 9.11256 2.57426 9.17352 2.62008 9.21903C2.99834 9.58848 3.43868 9.88661 3.92039 10.0994C4.25226 10.2436 4.60007 10.3496 4.94716 10.4751C5.02505 10.0235 5.23157 9.82504 5.61778 9.8243C7.21482 9.82063 8.81173 9.82063 10.4085 9.8243C10.7422 9.8243 10.9799 10.0415 11.0277 10.3617C11.0317 10.3885 11.0386 10.4145 11.0451 10.4468C11.9038 10.2622 12.6985 9.84971 13.3479 9.25168C13.3846 9.22212 13.4139 9.18417 13.4334 9.14094C13.4528 9.09771 13.4619 9.05043 13.4599 9.00297C13.4562 7.19058 13.4554 5.37794 13.4573 3.56506V3.40512L11.3748 3.40402ZM10.9321 1.70193H3.53779C3.53453 1.74925 3.52982 1.7874 3.52982 1.82518C3.52982 3.09222 3.52982 4.35913 3.52982 5.62592C3.53084 5.68431 3.53605 5.74254 3.5454 5.80016C3.5706 5.99047 3.66611 6.16403 3.81267 6.28588C3.95923 6.40772 4.14596 6.4688 4.33523 6.45679C4.52202 6.44906 4.69927 6.37117 4.83243 6.23832C4.96559 6.10546 5.04511 5.92716 5.05549 5.73817C5.06346 5.60244 5.06708 5.46598 5.07976 5.33025C5.14497 4.62924 5.88118 4.11971 6.55035 4.31156C7.11917 4.47407 7.44887 4.91463 7.45611 5.53054C7.46082 5.99825 7.45321 6.46633 7.45829 6.93404C7.46408 7.50483 7.92928 7.88266 8.43651 7.73373C8.77852 7.63322 8.98431 7.33829 8.9854 6.93477C8.9854 6.04814 8.9854 5.16114 8.9854 4.27451C8.98357 4.21138 8.98966 4.14827 9.00351 4.0867C9.03177 3.97848 9.1151 3.90988 9.21763 3.93996C9.2901 3.96197 9.35966 4.03644 9.40639 4.10467C9.43828 4.15126 9.42705 4.22719 9.43755 4.28809C9.47157 4.46673 9.56629 4.62767 9.70527 4.74299C9.84424 4.85831 10.0187 4.92072 10.1984 4.9194C10.5755 4.90876 10.9288 4.61493 10.936 4.2503C10.9531 3.40659 10.9415 2.56545 10.9415 1.72283C10.9415 1.72027 10.9379 1.71587 10.9321 1.70193V1.70193ZM7.99739 11.3001C8.78142 11.3001 9.56533 11.3001 10.3491 11.3001C10.5477 11.3001 10.5955 11.2502 10.5962 11.0503C10.5962 10.8844 10.5962 10.7201 10.5962 10.5532C10.5962 10.2964 10.56 10.2597 10.3035 10.2597H6.5105C6.21232 10.2597 5.91415 10.2579 5.61597 10.2597C5.45257 10.2616 5.39859 10.3177 5.39859 10.4798C5.39678 10.6599 5.39859 10.8401 5.39859 11.0205C5.39859 11.2582 5.43844 11.2982 5.67611 11.2982L7.99739 11.3001ZM2.09184 8.63394V3.39742C1.86975 3.39742 1.67338 3.34936 1.51831 3.18869C1.36325 3.02802 1.32049 2.8325 1.32085 2.60176C1.1013 2.72428 1.03862 2.90513 1.03862 3.12266C1.03862 3.92125 1.03572 4.71985 1.03862 5.51844C1.04442 6.616 1.3531 7.61635 1.99257 8.50738C2.023 8.54773 2.05271 8.58075 2.09437 8.63394H2.09184ZM13.8946 3.40989V8.60936C13.9106 8.60642 13.9232 8.60936 13.9276 8.60239C13.9519 8.57231 13.9743 8.54039 13.9968 8.50921C14.6392 7.61341 14.9467 6.60793 14.9507 5.50523C14.954 4.71618 14.9507 3.92786 14.9507 3.1388C14.9528 3.06101 14.9439 2.98332 14.9243 2.90807C14.8852 2.77711 14.8156 2.66486 14.6707 2.6168C14.6315 3.15311 14.4783 3.31011 13.8972 3.40989H13.8946ZM3.08419 2.94732V1.69422C2.71573 1.69422 2.35632 1.68799 1.99728 1.69716C1.84438 1.70119 1.76287 1.79987 1.76033 1.95394C1.75634 2.20705 1.75598 2.46017 1.76033 2.71291C1.76287 2.83984 1.83279 2.93888 1.95851 2.94218C2.33458 2.95392 2.70776 2.94732 3.08673 2.94732H3.08419Z" fill="white"/>
</svg>

<svg width="16" height="16" fill="none" xmlns="http://www.w3.org/2000/svg"><path d="M.609 2.884c.07-.142.116-.305.217-.42.107-.123.26-.21.402-.293.065-.037.103-.06.104-.147.01-.52.268-.773.784-.773h10.015a.95.95 0 01.129.004c.124.019.204.088.209.22.004.12-.09.21-.227.213-.236.005-.471.002-.707.003h-.14v1.256c.052.003.099.007.146.007h2.352c.272 0 .342-.072.342-.345v-.614c-.001-.212-.087-.3-.299-.304-.25-.003-.5 0-.75 0-.172 0-.27-.08-.273-.213-.002-.133.1-.22.267-.224.265-.003.53-.007.794 0 .426.014.692.296.693.731 0 .098.018.151.121.192.372.147.591.435.594.836.008 1.008.031 2.018-.03 3.024-.072 1.193-.552 2.238-1.334 3.133a.468.468 0 00-.129.336c.005 1.306 0 2.612.004 3.918 0 .542-.218.959-.704 1.19a1.448 1.448 0 01-.598.129c-3.06.008-6.118.01-9.177.004-.784 0-1.302-.529-1.305-1.32v-.629c0-.16.086-.259.214-.259s.214.098.217.259c.004.22 0 .44 0 .658.006.502.32.829.816.851.034.002.067 0 .101 0h9.105c.467 0 .775-.22.874-.627a.92.92 0 00.021-.217c.002-1.203.002-2.407 0-3.61 0-.033-.004-.065-.008-.123a5.443 5.443 0 01-2.418 1.167v.222c-.008.333-.217.569-.543.61a1.004 1.004 0 01-.13.007H5.639c-.352 0-.604-.183-.66-.488-.02-.11-.013-.223-.019-.351a5.427 5.427 0 01-2.412-1.171c-.004.073-.008.123-.008.172v1.856a.769.769 0 01-.015.174.195.195 0 01-.073.123.19.19 0 01-.137.038c-.115-.005-.186-.073-.203-.19a1.027 1.027 0 01-.004-.147c0-.77.002-1.54-.003-2.31a.363.363 0 00-.08-.22A5.489 5.489 0 01.627 5.98a1.087 1.087 0 00-.02-.11V2.884zm10.766.52c0 .286.013.563-.002.839-.042.738-.773 1.269-1.476 1.072-.162-.046-.313-.13-.478-.2v.179c-.003.604.007 1.21-.012 1.812-.014.464-.367.89-.811 1.035a1.196 1.196 0 01-1.272-.354c-.215-.255-.299-.55-.3-.876-.003-.492.005-.985-.008-1.476-.01-.4-.33-.702-.73-.723a.747.747 0 00-.514.178.765.765 0 00-.261.482c-.02.15-.015.302-.028.452-.073.819-.996 1.33-1.715.949-.466-.247-.67-.65-.671-1.17-.002-.677 0-1.354 0-2.031v-.164h-.552c-.003.037-.006.061-.006.085 0 1.852.001 3.703.003 5.555a.267.267 0 00.078.171c.378.37.819.668 1.3.88.332.145.68.25 1.027.376.078-.451.285-.65.67-.65 1.598-.004 3.195-.004 4.792 0 .333 0 .57.216.619.537.004.027.01.053.017.085a4.93 4.93 0 002.303-1.195.301.301 0 00.112-.249c-.004-1.812-.005-3.625-.003-5.438v-.16l-2.082-.001zm-.443-1.702H3.538c-.003.047-.008.085-.008.123v3.8c0 .06.006.118.015.175.026.19.121.364.268.486a.744.744 0 00.522.17.748.748 0 00.497-.218.766.766 0 00.223-.5c.008-.136.012-.272.025-.408.065-.7.801-1.21 1.47-1.018.57.162.899.603.906 1.219.005.467-.003.935.002 1.403.006.57.471.949.979.8.342-.1.547-.396.548-.8v-2.66a.756.756 0 01.019-.187c.028-.109.111-.177.214-.147.072.022.142.096.188.165.032.046.021.122.032.183a.78.78 0 00.267.455.763.763 0 00.493.176c.377-.01.73-.304.738-.669.017-.843.005-1.685.005-2.527 0-.003-.003-.007-.009-.021zM7.997 11.3h2.352c.199 0 .246-.05.247-.25v-.497c0-.257-.036-.293-.293-.293H6.51c-.298 0-.596-.002-.894 0-.163.002-.217.058-.217.22-.002.18 0 .36 0 .54 0 .238.04.278.277.278l2.321.002zM2.092 8.634V3.397c-.222 0-.419-.048-.574-.208-.155-.161-.198-.357-.197-.587-.22.122-.282.303-.282.52 0 .8-.003 1.598 0 2.396.005 1.098.314 2.098.954 2.99.03.04.06.073.101.126h-.002zM13.895 3.41v5.2c.016-.004.028 0 .033-.008.024-.03.046-.062.069-.093.642-.896.95-1.901.954-3.004.003-.789 0-1.577 0-2.366a.827.827 0 00-.027-.23c-.039-.132-.108-.244-.253-.292-.04.536-.193.693-.774.793h-.002zm-10.81-.463V1.694c-.37 0-.729-.006-1.088.003-.153.004-.234.103-.237.257-.004.253-.004.506 0 .759.003.127.073.226.199.23.376.01.749.004 1.128.004h-.003z" fill="#fff"/></svg>
